X: 100273
T: MILLER'S HORNPIPE
C: By Zeke Bacus
R: hornpipe, reel
B: K\"ohler's Violin Repository, v.3, 1885 p.203 #3
F: http://www.archive.org/details/klersviolinrepos03rugg
Z: 2012 John Chambers <jc:trillian.mit.edu>
M: C|
L: 1/8
K: A
|:\
vA,2CE D2FA | E2GB A2cA | (BE)(cE) (dE)(cE) | (BE)cB (AF)EC |
A,2CE D2FA | E2GB A2cA | {g}(fe)fg (ag)af | e(cBc) A2 :|
|: ((3efg) |\
a2ga (fe)ce | b2bg (ag)fe | gebe gbeg | fe^df e2 ((3efg) |
a2ga (fe)ce | fgag fece | (fB)(gB) afed | cABG A2 :|

%%sep 2 1 500

